assets/images/step-arrow.svg

<svg fill="none" height="37" viewBox="0 0 307 37" width="307" xmlns="http://www.w3.org/2000/svg"><path d="m306.664 25.4688c.193-.3664.052-.82-.314-1.0131l-5.973-3.1458c-.366-.1931-.82-.0525-1.013.314s-.052.8201.314 1.0131l5.309 2.7963-2.796 5.3086c-.193.3665-.053.82.314 1.0131.366.193.82.0524 1.013-.314zm-305.41021-12.8825c58.64841-21.09025 101.30621-7.5155 146.14121 6.2618 44.861 13.7853 91.848 27.7491 158.827 6.9876l-.444-1.4328c-66.521 20.6193-113.131 6.7816-157.943-6.9886-44.838-13.77822-87.9303-27.5132-147.088793-6.2395z" fill="#b55a18"/></svg>

<svg width="307" height="37" viewBox="0 0 307 37" fill="none" xmlns="http://www.w3.org/2000/svg">
<path d="M306.664 25.4688C306.857 25.1024 306.716 24.6488 306.35 24.4557L300.377 21.3099C300.011 21.1168 299.557 21.2574 299.364 21.6239C299.171 21.9904 299.312 22.444 299.678 22.637L304.987 25.4333L302.191 30.7419C301.998 31.1084 302.138 31.5619 302.505 31.755C302.871 31.948 303.325 31.8074 303.518 31.441L306.664 25.4688ZM1.25379 12.5863C59.9022 -8.50395 102.56 5.0708 147.395 18.8481C192.256 32.6334 239.243 46.5972 306.222 25.8357L305.778 24.4029C239.257 45.0222 192.647 31.1845 147.835 17.4143C102.997 3.63608 59.9047 -10.0989 0.746207 11.1748L1.25379 12.5863Z" fill="#B55A18"/>
</svg>
